X:1
T:The Lord in Zion Reigneth
T:The Lord in Zion Reigneth
T:Hart Pease Danks
T:Frances Jane (Fanny) Crosby, 1886
T:Public Domain Courtesy of the Cyber Hymnal™
C:Hart Pease Danks
Z:Public Domain
Z:Courtesy of the Cyber Hymnal™
%%score ( 1 2 ) ( 3 4 )
L:1/8
Q:1/4=113
M:4/4
K:D
V:1 treble 
V:2 treble 
V:3 bass 
V:4 bass 
V:1
 A2 | F2 D2 [CE]2 [A,C]2 | [A,D]4 [A,D]2 [DF]2 | [FA]2 [Fd]2 [Ec]2 [E^A]2 | [DB]6 [EA]2 | %5
w: 1.~The|Lord in Zi- on|reign- eth, let|all the world re-|joice, And|
w: 2.~The|Lord in Zi- on|reign- eth, and|who so great as|He? The|
w: 3.~The|Lord in Zi- on|reign- eth, these|hours to Him be-|long; O|
 [Dd]2 [DA]2 [Dc]2 [DB]2 | [DA]3 [DG] [DF]2 [^B,F]2 | [CE]2 [CA]2 [DB]3 [CA] | [CA]6 A2 | %9
w: come be- fore His|throne of grace with|tune- ful heart and|voice; The|
w: depths of earth are|in His hands; He|rules the might- y|sea. O|
w: en- ter now His|tem- ple gates, and|fill His courts with|song; Be-|
 [Gc]3 [Gc] [GB]2 [GA]2 | ([Fd]2 A2) F2 D2 | [DE]2 [^DF]2 [EG]2 [E^G]2 | (A2 B2 c2) [EA]2 | %13
w: Lord in Zi- on|reign- * eth, and|there His praise shall|ring, * * To|
w: crown His Name with|hon- * or, and|let His stand- ard|wave, * * Till|
w: neath His roy- al|ban- * ner let|ev- ery crea- ture|fall, * * Ex-|
 [Dd]2 [DA]2 [Dc]2 [DB]2 | [DA]2 [^DA]2 [FA]2 [EG]2 | [EF]2 [DF]2 F3 z E | D6 |] %17
w: Him shall princ- es|bend the knee and|kings their glor- y|bring.|
w: dis- tant isles be-|yond the deep shall|own His power to|save.|
w: alt the King of|heaven and earth, and|crown Him Lord of|all.|
V:2
 A2 | F2 D2 x4 | x8 | x8 | x8 | x8 | x8 | x8 | x6 A2 | x8 | x2 A2 F2 D2 | x8 | E6 x2 | x8 | x8 | %15
 x4 (C2 C2) x | D6 |] %17
V:3
 A,2 | F,2 [D,F,]2 [A,,G,]2 [A,,G,]2 | [D,F,]4 [D,F,]2 [D,A,]2 | [D,D]2 [D,A,]2 [F,^A,]2 [F,C]2 | %4
 [B,,B,]6 [C,G,]2 | [D,F,]2 [D,F,]2 G,2 G,2 | [D,F,]3 [D,B,] [D,A,]2 [^D,A,]2 | %7
 [E,A,]2 [E,A,]2 [E,^G,]3 [A,,A,] | [A,,A,]6 A,2 | [A,E]3 [A,E] [A,D]2 [A,C]2 | %10
 ([D,D]2 A,2) F,2 [F,A,]2 | [G,B,]2 [F,B,]2 [E,B,]2 [=D,B,]2 | %12
 ([C,A,]2 [B,,^G,]2 [A,,A,]2) [C,=G,]2 | [D,F,]2 [D,F,]2 G,2 G,2 | %14
 [D,F,]2 (F,B,) [E,B,]2 [G,,B,]2 | [A,,A,]2 [A,,A,]2 [A,,A,]2 [A,,G,]2 x | [D,F,]6 |] %17
V:4
 A,2 | F,2 x6 | x8 | x8 | x8 | x4 (G,,A,,) (B,,C,) | x8 | x8 | x6 A,2 | x8 | x2 A,2 F,2 x2 | x8 | %12
 x8 | x4 (G,,A,,) (B,,C,) | x2 B,,2 x4 | x9 | x6 |] %17

